actions/16/document-save-as.svg

<svg xmlns="http://www.w3.org/2000/svg" viewBox="0 0 16 16">
  <defs id="defs3051">
<style type="text/css" id="current-color-scheme">.ColorScheme-Text {color:#fcfcfc;}</style>
  </defs>
 <path style="fill:currentColor;fill-opacity:1;stroke:none" 
     d="m 2,4 c 0,2 0,6 0,8 0,2 2,2 2,2 H 7 V 13 H 6 5 V 10 H 6 7 8 V 9 H 7 5 3.96875 v 4 C 3.96875,13 3,13 3,12 3,11 3,5 3,4 3,3 4,3 4,3 h 1 v 3 1 h 2 4 V 6 3 h 0.28125 L 13,4.71875 V 5 7 h 1 V 4.28125 L 11.71875,2 H 11.6875 11 4 C 4,2 2,2 2,4 Z M 6,3 H 7.90625 V 6 H 6 Z m 6,5 -1,1 -1,1 -2,2 v 1 1 h 2 l 1,-1 1,-1 1,-1 1,-1 z m -0.310547,1.6894531 0.591797,0.5917969 -1.6875,1.6875 v 0.01563 L 9.3125,13.28125 8.71875,12.6875 Z"
     class="ColorScheme-Text"
     />
</svg>

<svg xmlns="http://www.w3.org/2000/svg" viewBox="0 0 16 16">
  <defs id="defs3051">
    <style type="text/css" id="current-color-scheme">
      .ColorScheme-Text {
        color:#eff0f1;
      }
      </style>
  </defs>
 <path style="fill:currentColor;fill-opacity:1;stroke:none" 
     d="M 2 2 L 2 14 L 3 14 L 4 14 L 7 14 L 7 13 L 6 13 L 5 13 L 5 10 L 6 10 L 7 10 L 8 10 L 8 9 L 7 9 L 5 9 L 3.96875 9 L 3.96875 13 L 3 13 L 3 3 L 4 3 L 5 3 L 5 6 L 5 7 L 7 7 L 11 7 L 11 6 L 11 3 L 11.28125 3 L 13 4.71875 L 13 5 L 13 7 L 14 7 L 14 4.28125 L 11.71875 2 L 11.6875 2 L 11 2 L 4 2 L 3 2 L 2 2 z M 6 3 L 7.90625 3 L 7.90625 6 L 6 6 L 6 3 z M 12 8 L 11 9 L 10 10 L 8 12 L 8 13 L 8 14 L 10 14 L 11 13 L 12 12 L 13 11 L 14 10 L 12 8 z M 11.689453 9.6894531 L 12.28125 10.28125 L 10.59375 11.96875 L 10.59375 11.984375 L 9.3125 13.28125 L 8.71875 12.6875 L 11.689453 9.6894531 z "
     class="ColorScheme-Text"
     />
</svg>
